flaticon/emoticons/superhero-1.svg

<svg xmlns="http://www.w3.org/2000/svg" width="32" height="32" viewBox="0 0 24 24">
    <path d="M14.035156 20.234375L10.273438 20.234375C10.011719 20.234375 9.800781 20.445312 9.800781 20.707031 9.800781 20.964844 10.011719 21.175781 10.273438 21.175781L14.035156 21.175781C14.296875 21.175781 14.507812 20.964844 14.507812 20.707031 14.507812 20.445312 14.296875 20.234375 14.035156 20.234375zM7.988281 15.988281C8.078125 16.0625 8.1875 16.105469 8.300781 16.105469 8.328125 16.105469 8.351562 16.105469 8.375 16.101562 8.511719 16.078125 8.636719 15.996094 8.707031 15.875L9.898438 13.890625C9.976562 13.761719 9.988281 13.605469 9.929688 13.46875 9.871094 13.328125 9.753906 13.226562 9.609375 13.191406L4.835938 11.996094C4.628906 11.945312 4.410156 12.042969 4.308594 12.234375 4.207031 12.425781 4.25 12.660156 4.410156 12.804688zM8.761719 13.949219L8.191406 14.90625 6.46875 13.375zM14.070312 13.46875C14.015625 13.605469 14.027344 13.761719 14.105469 13.890625L15.296875 15.875C15.367188 15.996094 15.488281 16.078125 15.628906 16.101562 15.652344 16.105469 15.675781 16.105469 15.699219 16.105469 15.8125 16.105469 15.925781 16.0625 16.011719 15.988281L19.589844 12.804688C19.753906 12.660156 19.796875 12.425781 19.695312 12.234375 19.59375 12.042969 19.371094 11.945312 19.164062 11.996094L14.390625 13.191406C14.246094 13.226562 14.128906 13.328125 14.070312 13.46875zM17.535156 13.375L15.8125 14.90625 15.238281 13.949219zM17.535156 13.375"/>
    <path d="M 20.117188 0.289062 C 20.03125 0.0820312 19.816406 -0.0351562 19.59375 0.0078125 C 19.375 0.0507812 19.214844 0.238281 19.210938 0.464844 C 19.179688 2.640625 18.921875 4.375 18.539062 5.761719 C 16.667969 4.171875 14.324219 3.292969 11.847656 3.292969 C 9.5 3.292969 7.242188 4.101562 5.410156 5.5625 C 5.058594 4.207031 4.824219 2.535156 4.789062 0.464844 C 4.785156 0.242188 4.625 0.0507812 4.40625 0.0078125 C 4.183594 -0.0351562 3.96875 0.0859375 3.882812 0.289062 C 3.730469 0.660156 0.550781 8.390625 1.515625 13.191406 L 1.511719 13.289062 C 1.503906 13.40625 1.496094 13.527344 1.496094 13.648438 C 1.496094 19.355469 6.140625 24 11.847656 24 C 17.320312 24 21.835938 19.734375 22.167969 14.28125 C 23.980469 9.675781 20.285156 0.691406 20.117188 0.289062 Z M 20.738281 16.441406 C 19.847656 18.835938 18.359375 20.261719 17.496094 20.855469 L 17.496094 18.601562 Z M 20.027344 2.765625 C 21.085938 5.886719 22.660156 11.65625 21.039062 14.464844 C 20.972656 14.582031 20.898438 14.695312 20.820312 14.800781 C 20.820312 14.800781 20.820312 14.804688 20.816406 14.804688 C 20.730469 14.917969 20.636719 15.027344 20.539062 15.125 C 20.53125 15.132812 20.519531 15.140625 20.507812 15.152344 C 20.421875 15.234375 20.332031 15.3125 20.238281 15.382812 C 20.210938 15.402344 20.183594 15.421875 20.15625 15.441406 C 20.074219 15.496094 19.988281 15.550781 19.898438 15.597656 C 19.863281 15.617188 19.828125 15.636719 19.792969 15.652344 C 19.703125 15.695312 19.613281 15.734375 19.519531 15.773438 C 19.480469 15.785156 19.441406 15.800781 19.402344 15.816406 C 19.300781 15.847656 19.199219 15.878906 19.09375 15.902344 C 19.054688 15.910156 19.015625 15.921875 18.976562 15.929688 C 18.832031 15.960938 18.679688 15.988281 18.519531 16.003906 C 17.84375 16.070312 17.238281 16.136719 16.621094 16.261719 L 13.863281 16.8125 C 13.761719 16.832031 13.691406 16.789062 13.65625 16.757812 C 13.625 16.730469 13.566406 16.671875 13.566406 16.566406 L 13.566406 12.464844 C 13.566406 12.34375 13.652344 12.242188 13.726562 12.226562 C 13.730469 12.226562 13.742188 12.226562 13.753906 12.226562 C 13.761719 12.226562 13.773438 12.222656 13.785156 12.222656 C 13.789062 12.222656 13.792969 12.222656 13.792969 12.222656 C 14.453125 12.160156 19.179688 11.414062 20.027344 2.765625 Z M 11.847656 4.234375 C 14.226562 4.234375 16.480469 5.117188 18.222656 6.726562 C 16.652344 11.046875 13.796875 11.28125 13.628906 11.292969 C 13.609375 11.292969 13.585938 11.304688 13.5625 11.308594 C 13.015625 11.421875 12.625 11.894531 12.625 12.464844 L 12.625 16.566406 C 12.625 16.65625 12.636719 16.746094 12.652344 16.832031 C 12.65625 16.839844 12.660156 16.851562 12.664062 16.859375 C 12.675781 16.898438 12.691406 16.9375 12.703125 16.976562 L 12.039062 17.839844 L 11.335938 16.871094 C 11.339844 16.859375 11.347656 16.84375 11.347656 16.832031 C 11.367188 16.746094 11.378906 16.65625 11.378906 16.566406 L 11.378906 12.464844 C 11.378906 11.898438 10.988281 11.425781 10.402344 11.304688 C 10.378906 11.300781 10.355469 11.292969 10.328125 11.285156 C 10.203125 11.277344 7.257812 11.042969 5.707031 6.527344 C 7.421875 5.046875 9.589844 4.234375 11.847656 4.234375 Z M 3.972656 2.765625 C 4.824219 11.417969 9.550781 12.160156 10.167969 12.21875 C 10.171875 12.21875 10.171875 12.21875 10.175781 12.21875 C 10.1875 12.21875 10.199219 12.21875 10.207031 12.222656 C 10.21875 12.222656 10.226562 12.222656 10.230469 12.222656 C 10.351562 12.238281 10.4375 12.34375 10.4375 12.464844 L 10.4375 16.566406 C 10.4375 16.667969 10.378906 16.730469 10.347656 16.757812 C 10.339844 16.765625 10.324219 16.773438 10.3125 16.777344 C 10.273438 16.800781 10.21875 16.828125 10.140625 16.8125 L 7.382812 16.257812 C 6.765625 16.136719 6.15625 16.070312 5.484375 16 C 5.296875 15.984375 5.121094 15.949219 4.949219 15.910156 C 4.910156 15.902344 4.875 15.894531 4.839844 15.882812 C 4.496094 15.792969 4.183594 15.664062 3.914062 15.484375 C 3.902344 15.476562 3.890625 15.46875 3.878906 15.460938 C 3.597656 15.273438 3.355469 15.035156 3.148438 14.75 C 3.144531 14.742188 3.140625 14.738281 3.136719 14.730469 C 3.050781 14.613281 2.976562 14.480469 2.90625 14.347656 C 2.871094 14.285156 2.839844 14.21875 2.808594 14.152344 C 2.75 14.023438 2.695312 13.894531 2.648438 13.753906 C 2.632812 13.710938 2.617188 13.667969 2.605469 13.625 C 2.546875 13.449219 2.496094 13.261719 2.453125 13.0625 C 1.796875 10.03125 3.074219 5.433594 3.972656 2.765625 Z M 6.203125 20.855469 C 5.335938 20.261719 3.851562 18.835938 2.957031 16.441406 L 6.203125 18.601562 Z M 7.023438 21.71875 C 7.097656 21.613281 7.140625 21.484375 7.140625 21.351562 L 7.140625 18.453125 C 7.140625 18.238281 7.035156 18.035156 6.851562 17.90625 L 5.402344 16.941406 C 6.046875 17.007812 6.628906 17.070312 7.199219 17.183594 L 9.953125 17.734375 C 10.03125 17.75 10.113281 17.757812 10.191406 17.757812 C 10.195312 17.757812 10.199219 17.757812 10.207031 17.757812 C 10.226562 17.757812 10.242188 17.753906 10.261719 17.753906 C 10.324219 17.75 10.382812 17.742188 10.441406 17.726562 C 10.46875 17.722656 10.492188 17.714844 10.515625 17.707031 C 10.570312 17.691406 10.625 17.671875 10.675781 17.648438 C 10.691406 17.644531 10.707031 17.640625 10.722656 17.632812 L 11.648438 18.90625 C 11.738281 19.027344 11.875 19.097656 12.023438 19.097656 C 12.027344 19.097656 12.027344 19.097656 12.03125 19.097656 C 12.175781 19.097656 12.3125 19.03125 12.402344 18.914062 L 13.363281 17.664062 C 13.402344 17.683594 13.441406 17.695312 13.484375 17.707031 C 13.511719 17.714844 13.535156 17.722656 13.558594 17.726562 C 13.617188 17.742188 13.679688 17.75 13.742188 17.753906 C 13.757812 17.753906 13.777344 17.757812 13.796875 17.757812 C 13.800781 17.757812 13.808594 17.757812 13.8125 17.757812 C 13.890625 17.757812 13.96875 17.75 14.046875 17.734375 L 16.804688 17.183594 C 17.261719 17.09375 17.734375 17.035156 18.230469 16.984375 L 16.835938 17.910156 C 16.660156 18.035156 16.554688 18.238281 16.554688 18.453125 L 16.554688 21.351562 C 16.554688 21.484375 16.597656 21.613281 16.671875 21.71875 C 15.257812 22.566406 13.609375 23.058594 11.847656 23.058594 C 10.085938 23.058594 8.4375 22.566406 7.023438 21.71875 Z M 7.023438 21.71875"/>
</svg>

<svg xmlns="http://www.w3.org/2000/svg" width="32" height="32" viewBox="0 0 24 24">
    <path d="M14.035 20.234h-3.762a.472.472 0 1 0 0 .942h3.762a.471.471 0 1 0 0-.942zm0 0M7.988 15.988c.09.075.2.117.313.117.027 0 .05 0 .074-.003a.478.478 0 0 0 .332-.227l1.191-1.984a.461.461 0 0 0 .032-.422.466.466 0 0 0-.32-.278l-4.774-1.195a.472.472 0 0 0-.426.809zm.774-2.039l-.57.957-1.723-1.531zm0 0M14.07 13.469a.474.474 0 0 0 .035.422l1.192 1.984a.47.47 0 0 0 .402.23.484.484 0 0 0 .313-.117l3.578-3.183a.466.466 0 0 0 .105-.57.477.477 0 0 0-.53-.239l-4.774 1.195a.466.466 0 0 0-.32.278zm3.465-.094l-1.723 1.531-.574-.957zm0 0"/>
    <path d="M20.117.29a.472.472 0 0 0-.906.176c-.031 2.175-.29 3.909-.672 5.296a10.287 10.287 0 0 0-6.691-2.469c-2.348 0-4.606.809-6.438 2.27-.351-1.356-.586-3.028-.62-5.098a.47.47 0 1 0-.906-.176C3.729.66.55 8.391 1.515 13.191l-.004.098a5.41 5.41 0 0 0-.016.36C1.496 19.354 6.141 24 11.848 24c5.472 0 9.988-4.266 10.32-9.719C23.98 9.676 20.285.691 20.118.29zm.621 16.151c-.89 2.395-2.379 3.82-3.242 4.414v-2.253zm-.71-13.675c1.058 3.12 2.632 8.89 1.011 11.699-.066.117-.14.23-.219.336 0 0 0 .004-.004.004-.086.113-.18.222-.277.32-.008.008-.02.016-.031.027a3 3 0 0 1-.27.23l-.082.06a2.825 2.825 0 0 1-.363.21c-.09.043-.18.082-.273.121-.04.012-.079.028-.118.043-.101.032-.203.063-.308.086-.04.008-.078.02-.117.028a3.988 3.988 0 0 1-.457.074c-.676.066-1.282.133-1.899.258l-2.758.55a.237.237 0 0 1-.207-.054.245.245 0 0 1-.09-.192v-4.101c0-.121.086-.223.16-.238h.028c.008 0 .02-.004.031-.004h.008c.66-.063 5.387-.809 6.234-9.457zm-8.18 1.468c2.379 0 4.632.883 6.375 2.493-1.57 4.32-4.426 4.554-4.594 4.566-.02 0-.043.012-.066.016a1.17 1.17 0 0 0-.938 1.156v4.101c0 .09.012.18.027.266l.012.027c.012.04.027.078.04.118l-.665.863-.703-.969c.004-.012.012-.027.012-.039.02-.086.03-.176.03-.266v-4.101c0-.567-.39-1.04-.976-1.16-.023-.004-.047-.012-.074-.02-.125-.008-3.07-.242-4.621-4.758a9.378 9.378 0 0 1 6.14-2.293zM3.973 2.766c.851 8.652 5.578 9.394 6.195 9.453h.008c.011 0 .023 0 .031.004h.023a.24.24 0 0 1 .207.242v4.101a.252.252 0 0 1-.09.192.102.102 0 0 1-.034.02.228.228 0 0 1-.172.035l-2.758-.555c-.617-.121-1.227-.188-1.899-.258a3.823 3.823 0 0 1-.644-.117 3.046 3.046 0 0 1-.926-.399l-.035-.023a2.867 2.867 0 0 1-.73-.711l-.012-.02a3.107 3.107 0 0 1-.23-.382 4.034 4.034 0 0 1-.3-.723 5.339 5.339 0 0 1-.154-.563c-.656-3.03.621-7.628 1.52-10.296zm2.23 18.09c-.867-.594-2.351-2.02-3.246-4.415l3.246 2.16zm.82.863a.641.641 0 0 0 .118-.367v-2.899a.668.668 0 0 0-.29-.547l-1.449-.965c.645.067 1.227.13 1.797.243l2.754.55c.078.016.16.024.238.024h.016c.02 0 .035-.004.055-.004a.907.907 0 0 0 .18-.027 1.119 1.119 0 0 0 .234-.078c.015-.004.031-.008.047-.016l.925 1.273c.09.121.227.192.375.192h.008a.466.466 0 0 0 .371-.184l.961-1.25c.04.02.078.031.121.043.028.008.051.016.075.02a.946.946 0 0 0 .183.027c.016 0 .035.004.055.004h.015c.079 0 .157-.008.235-.024l2.758-.55c.457-.09.93-.149 1.425-.2l-1.394.926a.668.668 0 0 0-.281.543v2.899c0 .132.043.261.117.367a9.353 9.353 0 0 1-9.649 0zm0 0"/>
</svg>
